!!!COM: Dufay, Guillaume
!!!CDT: ~1400///-1474/11//
!!!OTL: Adieu ces bons vins de Lannoys
!!!AGN: rondeau
**kern	**kern	**kern
*Ivox	*Ivox	*Ivox
*M3/4	*M3/4	*M3/4
*MM144	*MM144	*MM144
=1-	=1-	=1-
2d	2D	2d
4c	4A	4e
=2	=2	=2
2d	2D	4.f
.	.	8e
4B-	4d	8f
.	.	8d
=3	=3	=3
2A	2c	4e
.	.	4r
4G	4B-	4g
=4	=4	=4
2c	4A	8a
.	.	8b-
.	4F	8a
.	.	8g
4B-	4G	8g
.	.	8f
=5	=5	=5
2.A	2D	4a
.	.	4r
.	4D	4a
=6	=6	=6
2.G	4d	4b-
.	4r	4a
.	4d	4g
=7	=7	=7
2D	4d	2f
.	4c	.
4G	4B-	4e
=8	=8	=8
2F	4.A	2d
.	8G	.
4E	8G	4c#
.	8F#	.
=9	=9	=9
2.D	2A	4d
.	.	4r
.	4d	4f
=10	=10	=10
2A	2c	2e
4B	4d	4d
=11	=11	=11
2A	4e	2c
.	8d	.
.	[8c	.
4E	8c]	4e
.	8B	.
=12	=12	=12
2F	4A	4d
.	4r	4c
4G	4G	4B
=13	=13	=13
2A	2D	4A
.	.	4r
4D	4F	4A
=14	=14	=14
4G	4E	8B
.	.	8c
4F	4D	8d
.	.	8d
4E	4G	8c#
.	.	8B
=15	=15	=15
2D	2.A	2d
4D	.	4a
=16	=16	=16
2A	2.c	4a
.	.	4g
4A	.	4f
=17	=17	=17
2G	2B	4.e
.	.	8d
4F	4A	8e
.	.	8c
=18	=18	=18
2.E	8A	4e
.	8A	.
.	8G	4r
.	8F#	.
.	8G	4r
.	8E	.
=19	=19	=19
2.d	4D	2.a
.	4r	.
.	4F	.
=20	=20	=20
2e	4E	2g
.	4C	.
4d	4D	4a
=21	=21	=21
2G	8r	4b
.	[8E	.
.	8E]	4cc
.	8F	.
4d	4G	4b
=22	=22	=22
2c	2A	2a
4B-	4d	4g
=23	=23	=23
4A	4c	4a
4G	4B	8r
.	.	8d
4A	4A	8e
.	.	8f
=24	=24	=24
4B-	4G	8g
.	.	8a
2A	2F	8g
.	.	8f
.	.	8f
.	.	8e
=25	=25	=25
2.G	2d	4g
.	.	4r
.	4d	4g
=26	=26	=26
2D	4d	4.a
.	4c	.
.	.	[8g
4E	4B	4g]
=27	=27	=27
4F	8A	4.f
.	[8D	.
4G	8D]	.
.	[8E	[8e
4A	8E]	4e]
.	8F	.
=28	=28	=28
2B-	2.r	4.d
.	.	[8c#
4A	.	4c#]
=29	=29	=29
4G	2.r	4d
2D	.	8r
.	.	8d
.	.	8f
.	.	8g
=30	=30	=30
2d	2.r	4a
.	.	8b-
.	.	8a
4d	.	8g
.	.	8f
=31	=31	=31
2A	2.r	8e
.	.	8d
.	.	8e
.	.	8f
4G	.	8g
.	.	8f
=32	=32	=32
2F	2.r	8d
.	.	8A
.	.	8d
.	.	8e
4E	.	8c#
.	.	8B
=33	=33	=33
2.D	2.r	2.d
=34	=34	=34
2d	2D	2d
4c	4A	4e
=35	=35	=35
2d	2D	4.f
.	.	8e
4B-	4d	8f
.	.	8d
=36	=36	=36
2A	2c	4e
.	.	4r
4G	4B-	4g
=37	=37	=37
2c	4A	8a
.	.	8b-
.	4F	8a
.	.	8g
4B-	4G	8g
.	.	8f
=38	=38	=38
2.A	2D	4a
.	.	4r
.	4D	4a
=39	=39	=39
2.G	4d	4b-
.	4r	4a
.	4d	4g
=40	=40	=40
2D	4d	2f
.	4c	.
4G	4B-	4e
=41	=41	=41
2F	4.A	2d
.	8G	.
4E	8G	4c#
.	8F#	.
=42	=42	=42
2.D	2A	4d
.	.	4r
.	4d	4f
=43	=43	=43
2A	2c	2e
4B	4d	4d
=44	=44	=44
2A	4e	2c
.	8d	.
.	[8c	.
4E	8c]	4e
.	8B	.
=45	=45	=45
2F	4A	4d
.	4r	4c
4G	4G	4B
=46	=46	=46
2A	2D	4A
.	.	4r
4D	4F	4A
=47	=47	=47
4G	4E	8B
.	.	8c
4F	4D	8d
.	.	8d
4E	4G	8c#
.	.	8B
=48	=48	=48
2D	2.A	2d
4D	.	4a
=49	=49	=49
2A	2.c	4a
.	.	4g
4A	.	4f
=50	=50	=50
2G	2B	4.e
.	.	8d
4F	4A	8e
.	.	8c
=51	=51	=51
2.E	8A	4e
.	8A	.
.	8G	4r
.	8F#	.
.	8G	4r
.	8E	.
=52	=52	=52
2d	2D	2d
4c	4A	4e
=53	=53	=53
2d	2D	4.f
.	.	8e
4B-	4d	8f
.	.	8d
=54	=54	=54
2A	2c	4e
.	.	4r
4G	4B-	4g
=55	=55	=55
2c	4A	8a
.	.	8b-
.	4F	8a
.	.	8g
4B-	4G	8g
.	.	8f
=56	=56	=56
2.A	2D	4a
.	.	4r
.	4D	4a
=57	=57	=57
2.G	4d	4b-
.	4r	4a
.	4d	4g
=58	=58	=58
2D	4d	2f
.	4c	.
4G	4B-	4e
=59	=59	=59
2F	4.A	2d
.	8G	.
4E	8G	4c#
.	8F#	.
=60	=60	=60
2.D	2A	4d
.	.	4r
.	4d	4f
=61	=61	=61
2A	2c	2e
4B	4d	4d
=62	=62	=62
2A	4e	2c
.	8d	.
.	[8c	.
4E	8c]	4e
.	8B	.
=63	=63	=63
2F	4A	4d
.	4r	4c
4G	4G	4B
=64	=64	=64
2A	2D	4A
.	.	4r
4D	4F	4A
=65	=65	=65
4G	4E	8B
.	.	8c
4F	4D	8d
.	.	8d
4E	4G	8c#
.	.	8B
=66	=66	=66
2D	2.A	2d
4D	.	4a
=67	=67	=67
2A	2.c	4a
.	.	4g
4A	.	4f
=68	=68	=68
2G	2B	4.e
.	.	8d
4F	4A	8e
.	.	8c
=69	=69	=69
2.E	8A	4e
.	8A	.
.	8G	4r
.	8F#	.
.	8G	4r
.	8E	.
=70	=70	=70
2d	2D	2d
4c	4A	4e
=71	=71	=71
2d	2D	4.f
.	.	8e
4B-	4d	8f
.	.	8d
=72	=72	=72
2A	2c	4e
.	.	4r
4G	4B-	4g
=73	=73	=73
2c	4A	8a
.	.	8b-
.	4F	8a
.	.	8g
4B-	4G	8g
.	.	8f
=74	=74	=74
2.A	2D	4a
.	.	4r
.	4D	4a
=75	=75	=75
2.G	4d	4b-
.	4r	4a
.	4d	4g
=76	=76	=76
2D	4d	2f
.	4c	.
4G	4B-	4e
=77	=77	=77
2F	4.A	2d
.	8G	.
4E	8G	4c#
.	8F#	.
=78	=78	=78
2.D	2A	4d
.	.	4r
.	4d	4f
=79	=79	=79
2A	2c	2e
4B	4d	4d
=80	=80	=80
2A	4e	2c
.	8d	.
.	[8c	.
4E	8c]	4e
.	8B	.
=81	=81	=81
2F	4A	4d
.	4r	4c
4G	4G	4B
=82	=82	=82
2A	2D	4A
.	.	4r
4D	4F	4A
=83	=83	=83
4G	4E	8B
.	.	8c
4F	4D	8d
.	.	8d
4E	4G	8c#
.	.	8B
=84	=84	=84
2D	2.A	2d
4D	.	4a
=85	=85	=85
2A	2.c	4a
.	.	4g
4A	.	4f
=86	=86	=86
2G	2B	4.e
.	.	8d
4F	4A	8e
.	.	8c
=87	=87	=87
2.E	8A	4e
.	8A	.
.	8G	4r
.	8F#	.
.	8G	4r
.	8E	.
=88	=88	=88
2.d	4D	2.a
.	4r	.
.	4F	.
=89	=89	=89
2e	4E	2g
.	4C	.
4d	4D	4a
=90	=90	=90
2G	8r	4b
.	[8E	.
.	8E]	4cc
.	8F	.
4d	4G	4b
=91	=91	=91
2c	2A	2a
4B-	4d	4g
=92	=92	=92
4A	4c	4a
4G	4B	8r
.	.	8d
4A	4A	8e
.	.	8f
=93	=93	=93
4B-	4G	8g
.	.	8a
2A	2F	8g
.	.	8f
.	.	8f
.	.	8e
=94	=94	=94
2.G	2d	4g
.	.	4r
.	4d	4g
=95	=95	=95
2D	4d	4.a
.	4c	.
.	.	[8g
4E	4B	4g]
=96	=96	=96
4F	8A	4.f
.	[8D	.
4G	8D]	.
.	[8E	[8e
4A	8E]	4e]
.	8F	.
=97	=97	=97
2B-	2.r	4.d
.	.	[8c#
4A	.	4c#]
=98	=98	=98
4G	2.r	4d
2D	.	8r
.	.	8d
.	.	8f
.	.	8g
=99	=99	=99
2d	2.r	4a
.	.	8b-
.	.	8a
4d	.	8g
.	.	8f
=100	=100	=100
2A	2.r	8e
.	.	8d
.	.	8e
.	.	8f
4G	.	8g
.	.	8f
=101	=101	=101
2F	2.r	8d
.	.	8A
.	.	8d
.	.	8e
4E	.	8c#
.	.	8B
=102	=102	=102
2.D	2.r	2.d
=103	=103	=103
2d	2D	2d
4c	4A	4e
=104	=104	=104
2d	2D	4.f
.	.	8e
4B-	4d	8f
.	.	8d
=105	=105	=105
2A	2c	4e
.	.	4r
4G	4B-	4g
=106	=106	=106
2c	4A	8a
.	.	8b-
.	4F	8a
.	.	8g
4B-	4G	8g
.	.	8f
=107	=107	=107
2.A	2D	4a
.	.	4r
.	4D	4a
=108	=108	=108
2.G	4d	4b-
.	4r	4a
.	4d	4g
=109	=109	=109
2D	4d	2f
.	4c	.
4G	4B-	4e
=110	=110	=110
2F	4.A	2d
.	8G	.
4E	8G	4c#
.	8F#	.
=111	=111	=111
2.D	2A	4d
.	.	4r
.	4d	4f
=112	=112	=112
2A	2c	2e
4B	4d	4d
=113	=113	=113
2A	4e	2c
.	8d	.
.	[8c	.
4E	8c]	4e
.	8B	.
=114	=114	=114
2F	4A	4d
.	4r	4c
4G	4G	4B
=115	=115	=115
2A	2D	4A
.	.	4r
4D	4F	4A
=116	=116	=116
4G	4E	8B
.	.	8c
4F	4D	8d
.	.	8d
4E	4G	8c#
.	.	8B
=117	=117	=117
2D	2.A	2d
4D	.	4a
=118	=118	=118
2A	2.c	4a
.	.	4g
4A	.	4f
=119	=119	=119
2G	2B	4.e
.	.	8d
4F	4A	8e
.	.	8c
=120	=120	=120
2.E	8A	4e
.	8A	.
.	8G	4r
.	8F#	.
.	8G	4r
.	8E	.
=121	=121	=121
2.d	4D	2.a
.	4r	.
.	4F	.
=122	=122	=122
2e	4E	2g
.	4C	.
4d	4D	4a
=123	=123	=123
2G	8r	4b
.	[8E	.
.	8E]	4cc
.	8F	.
4d	4G	4b
=124	=124	=124
2c	2A	2a
4B-	4d	4g
=125	=125	=125
4A	4c	4a
4G	4B	8r
.	.	8d
4A	4A	8e
.	.	8f
=126	=126	=126
4B-	4G	8g
.	.	8a
2A	2F	8g
.	.	8f#
.	.	8f#
.	.	8e
=127	=127	=127
2.G	2d	4g
.	.	4r
.	4d	4g
=128	=128	=128
2D	4d	4.a
.	4c	.
.	.	[8g
4E	4B	4g]
=129	=129	=129
4F	8A	4.f
.	[8D	.
4G	8D]	.
.	[8E	[8e
4A	8E]	4e]
.	8F	.
=130	=130	=130
2B-	2.r	4.d
.	.	[8c#
4A	.	4c#]
=131	=131	=131
4G	2.r	4d
2D	.	8r
.	.	8d
.	.	8f
.	.	8g
=132	=132	=132
2d	2.r	4a
.	.	8b-
.	.	8a
4d	.	8g
.	.	8f
=133	=133	=133
2A	2.r	8e
.	.	8d
.	.	8e
.	.	8f
4G	.	8g
.	.	8f
=134	=134	=134
2F	2.r	8d
.	.	8A
.	.	8d
.	.	8e
4E	.	8c#
.	.	8B
=135	=135	=135
2.D	2.r	2.d
=136	=136	=136
2.r	2.r	2.r
*-	*-	*-
!!!ENC: Craig Stuart Sapp
!!!END: 2004/03/15/
